X: 78
T:Miss Cruickshank's Reel - Glass
B:William Marshall's Scottish Airs, Melodies, Strathspeys, Reels &c (1822)
C:William Marshall
L:1/8
M:C|
O:Scotland
R:Reel
Z:Clark Bernst + Richard Robinson
%%Page:12 - 3
F:http://richardrobinson.tunebook.org.uk/tune/3921
%%TBL:{"version":1,"type":"tune","id":"3921"}
K:Bb
%%staves {1 2}
V:1
~FGBd {d}e2 (eg) | fdcB !trill!cBGB | FGBd {d}e2 (eg) | fdcd B/B/B B2 :| 
(!trill!gab)!wedge!a (gf)ed | cBcd BGGf | (gab)a (gf)ed | cBcd B/B/B B2 | 
(!trill!gab)(a gf)ed | !trill!cBcd BGGB | FGBc defg | fdcd B/B/B B2 |]
V:2 middle=d clef=bass
L:1/4
BBee | BBee | Bdee | fFBB :| \
bbbB | BBee | BbbB | ffBB | bbbB | BBee | BBBB | ffBB |]

